X: 38
T:MERE, METTEZ LE CHAT CUIRE
M:2/4
L:1/16
Q:190
C:(trad.Bresse/Jura. Grospierre: branles de Nanc)
K:C
c4|G2c2 d2d2|e2d2c4|G2c2 d2e2|c4:|:e4|d2c2 B2A2|G4A2AB|1A2G2 A2AB|A2G2:|
2A2G2 e2d2|c4||
